X:1
T:[ID 1-12]
T:[ID 1-12]
T:Bezeichnung standardisiert: Menuett Men\"uet In anderer Quelle: 142 - Hs. Bolhuis 1730 ca. (Anm. S. Wascher);
T:Urheber unbekannt Erstbeleg: 1730 (Datum in der schriftlichen Quelle) Datum in der hier transkribierten schriftlichen Quelle: vermutlich vor 1767
C:Urheber unbekannt
C:Erstbeleg: 1730 (Datum in der schriftlichen Quelle)
C:Datum in der hier transkribierten schriftlichen Quelle: vermutlich vor 1767
L:1/8
M:4/4
K:D
V:1 treble 
V:1
 d2 c4 | d2 fd A2 | B2 gefd | c3 efg | a2 fage | f2 dfec | d2 e2 c2 |"^[sic]" d4 x2 :: f4 D2 | %9
 C2 ed e2 | B2 dBcA | ^GABG E2 | a2 ^g2 a2 | b2 a2 b2 | c2 dcBc | A6 | a4 F2 | E2 gf g2 | E2 fefd | %19
 cdec A2 | a2 fage | f2 dfec | d2 e2 c2 |"^[sic]" d4 x2 :| %24

